assets/Hourglass not done/Flat/hourglass_not_done_flat.svg

<svg width="32" height="32" viewBox="0 0 32 32" fill="none" xmlns="http://www.w3.org/2000/svg">
<path d="M25 4L16 3L7 4V7.5C7.18983 9.98429 8.82278 14.0192 14 14.8483V17.1517C8.82278 17.9808 7.18983 22.0157 7 24.5V28L16 29L25 28V24.5C24.8102 22.0157 23.1772 17.9808 18 17.1517V14.8483C23.1772 14.0192 24.8102 9.98429 25 7.5V4Z" fill="#83CBFF"/>
<path d="M17 22.2V14.8C17 14.3 17.3 13.9 17.8 13.8C21 13.1 23.4 10.5 23.9 7.2C24 6.6 23.5 6 22.9 6H9.10002C8.50002 6 8.00002 6.6 8.10002 7.2C8.60002 10.5 11 13.1 14.2 13.8C14.7 13.9 15 14.3 15 14.8C15 16.5 15 20.5 15 22.2C15 22.7 14.7 23.1 14.2 23.2C12.3 23.6 10.7 24.7 9.60002 26.2C9.00002 27 9.60002 28 10.5 28H21.5C22.4 28 23 27 22.4 26.3C21.3 24.8 19.6 23.7 17.8 23.3C17.3 23.1 17 22.7 17 22.2Z" fill="#FFB02E"/>
<path d="M7 2C6.44772 2 6 2.44772 6 3C6 3.55228 6.44772 4 7 4H25C25.5523 4 26 3.55228 26 3C26 2.44772 25.5523 2 25 2H7Z" fill="#D3D3D3"/>
<path d="M7 28C6.44772 28 6 28.4477 6 29C6 29.5523 6.44772 30 7 30H25C25.5523 30 26 29.5523 26 29C26 28.4477 25.5523 28 25 28H7Z" fill="#D3D3D3"/>
<path d="M22.0069 6.11674C22.1473 7.31021 21.9858 8.26372 21.6068 8.97687C21.2367 9.67346 20.6167 10.223 19.6683 10.5565C19.1473 10.7396 18.8734 11.3105 19.0566 11.8315C19.2398 12.3525 19.8106 12.6264 20.3317 12.4433C21.7084 11.9593 22.7457 11.0959 23.373 9.91531C23.9915 8.75132 24.1674 7.36352 23.9931 5.88296C23.9286 5.33447 23.4316 4.94215 22.8831 5.00671C22.3346 5.07126 21.9423 5.56824 22.0069 6.11674Z" fill="white"/>
<path d="M18.8714 19.0714C18.3586 18.8663 17.7767 19.1157 17.5715 19.6285C17.3664 20.1413 17.6158 20.7233 18.1286 20.9284C19.28 21.3889 20.2457 22.0068 20.9193 22.8151C21.5781 23.6057 22 24.6276 22 25.9999C22 26.5522 22.4477 26.9999 23 26.9999C23.5523 26.9999 24 26.5522 24 25.9999C24 24.1722 23.4219 22.6941 22.4557 21.5347C21.5043 20.393 20.2201 19.6109 18.8714 19.0714Z" fill="white"/>
</svg>

<svg xmlns="http://www.w3.org/2000/svg" width="32" height="32" fill="none"><path fill="#83CBFF" d="m25 4-9-1-9 1v3.5c.19 2.484 1.823 6.52 7 7.348v2.304c-5.177.829-6.81 4.864-7 7.348V28l9 1 9-1v-3.5c-.19-2.484-1.823-6.52-7-7.348v-2.304c5.177-.829 6.81-4.864 7-7.348V4Z"/><path fill="#FFB02E" d="M17 22.2v-7.4c0-.5.3-.9.8-1 3.2-.7 5.6-3.3 6.1-6.6.1-.6-.4-1.2-1-1.2H9.1c-.6 0-1.1.6-1 1.2.5 3.3 2.9 5.9 6.1 6.6.5.1.8.5.8 1v7.4c0 .5-.3.9-.8 1-1.9.4-3.5 1.5-4.6 3-.6.8 0 1.8.9 1.8h11c.9 0 1.5-1 .9-1.7-1.1-1.5-2.8-2.6-4.6-3-.5-.2-.8-.6-.8-1.1Z"/><path fill="#D3D3D3" d="M7 2a1 1 0 0 0 0 2h18a1 1 0 1 0 0-2H7ZM7 28a1 1 0 1 0 0 2h18a1 1 0 1 0 0-2H7Z"/><path fill="#fff" d="M22.007 6.117c.14 1.193-.021 2.147-.4 2.86-.37.696-.99 1.246-1.939 1.58a1 1 0 1 0 .664 1.886c1.376-.484 2.414-1.347 3.041-2.528.618-1.164.794-2.551.62-4.032a1 1 0 1 0-1.986.234ZM18.871 19.071a1 1 0 0 0-.742 1.857c1.151.46 2.117 1.079 2.79 1.887C21.58 23.605 22 24.628 22 26a1 1 0 1 0 2 0c0-1.828-.578-3.306-1.544-4.465-.952-1.142-2.236-1.924-3.585-2.464Z"/></svg>
